bitmaps_png/sources/go_previous.svg

<svg xmlns="http://www.w3.org/2000/svg" height="48" width="48" version="1.1">
 <defs>
  <radialGradient id="e" gradientUnits="userSpaceOnUse" cy="5.786" cx="25.076" gradientTransform="matrix(-2.0467,0,0,1.5576,67.594,3.2753)" r="17.171">
   <stop stop-color="#fff" offset="0"/>
   <stop stop-color="#fff" stop-opacity="0" offset="1"/>
  </radialGradient>
  <radialGradient id="f" gradientUnits="userSpaceOnUse" cy="36.421" cx="24.837" gradientTransform="matrix(1 0 0 .53672 0 16.873)" r="15.645">
   <stop offset="0"/>
   <stop stop-opacity="0" offset="1"/>
  </radialGradient>
  <radialGradient id="d" gradientUnits="userSpaceOnUse" cy="32.798" cx="22.292" gradientTransform="matrix(-.84302 0 0 1.0202 43.576 1.2052)" r="16.956">
   <stop stop-color="#73d216" offset="0"/>
   <stop stop-color="#4e9a06" offset="1"/>
  </radialGradient>
 </defs>
 <path opacity=".29947" style="color:#000000" d="m40.482 36.421a15.645 8.3969 0 1 1 -31.289 0 15.645 8.3969 0 1 1 31.289 0z" fill-rule="evenodd" transform="matrix(-1.2712,0,0,1.2712,56.195,-15.279)" fill="url(#f)"/>
 <path stroke-linejoin="round" style="color:#000000" d="m39.49 15.497v16.994h-12.953v8.4825l-19.959-17 19.954-17.244v8.7725l12.959-0.0053z" fill-rule="evenodd" stroke="#3a7304" stroke-linecap="round" stroke-miterlimit="10" fill="url(#d)"/>
 <path opacity=".50802" style="color:#000000" d="m25.988 7.978v8.0565h12.942v8.885c-16.75-6.25-16.134 5.295-31.384-0.955l18.442-15.984z" fill-rule="evenodd" fill="url(#e)"/>
 <path opacity=".48128" style="color:#000000" d="m38.476 16.541v14.922h-12.985v7.3014l-17.323-14.795 17.338-14.905v7.4826l12.969-0.0049z" stroke="#fff" stroke-miterlimit="10" fill="none"/>
</svg>

<?xml version="1.0" encoding="UTF-8" standalone="no"?>
<svg
   xmlns:dc="http://purl.org/dc/elements/1.1/"
   xmlns:cc="http://creativecommons.org/ns#"
   xmlns:rdf="http://www.w3.org/1999/02/22-rdf-syntax-ns#"
   xmlns:svg="http://www.w3.org/2000/svg"
   xmlns="http://www.w3.org/2000/svg"
   xmlns:sodipodi="http://sodipodi.sourceforge.net/DTD/sodipodi-0.dtd"
   xmlns:inkscape="http://www.inkscape.org/namespaces/inkscape"
   height="26"
   width="26"
   version="1.1"
   id="svg27"
   sodipodi:docname="go_previous.svg"
   shape-rendering="crispEdges"
   inkscape:version="0.92.0 r15299">
  <metadata
     id="metadata31">
    <rdf:RDF>
      <cc:Work
         rdf:about="">
        <dc:format>image/svg+xml</dc:format>
        <dc:type
           rdf:resource="http://purl.org/dc/dcmitype/StillImage" />
        <dc:title></dc:title>
      </cc:Work>
    </rdf:RDF>
  </metadata>
  <sodipodi:namedview
     pagecolor="#ffffff"
     bordercolor="#666666"
     borderopacity="1"
     objecttolerance="10"
     gridtolerance="10"
     guidetolerance="10"
     inkscape:pageopacity="0"
     inkscape:pageshadow="2"
     inkscape:window-width="1236"
     inkscape:window-height="814"
     id="namedview29"
     showgrid="true"
     inkscape:zoom="16.655373"
     inkscape:cx="23.034368"
     inkscape:cy="14.54199"
     inkscape:window-x="396"
     inkscape:window-y="90"
     inkscape:window-maximized="0"
     inkscape:current-layer="svg27">
    <inkscape:grid
       type="xygrid"
       id="grid38" />
  </sodipodi:namedview>
  <defs
     id="defs17">
    <radialGradient
       id="e"
       gradientUnits="userSpaceOnUse"
       cy="5.7859998"
       cx="25.076"
       gradientTransform="matrix(-2.0467,0,0,1.5576,67.594,3.2753)"
       r="17.171">
      <stop
         stop-color="#fff"
         offset="0"
         id="stop2" />
      <stop
         stop-color="#fff"
         stop-opacity="0"
         offset="1"
         id="stop4" />
    </radialGradient>
    <radialGradient
       id="f"
       gradientUnits="userSpaceOnUse"
       cy="36.421001"
       cx="24.837"
       gradientTransform="matrix(1,0,0,0.53672,0,16.873)"
       r="15.645">
      <stop
         offset="0"
         id="stop7" />
      <stop
         stop-opacity="0"
         offset="1"
         id="stop9" />
    </radialGradient>
    <radialGradient
       id="d"
       gradientUnits="userSpaceOnUse"
       cy="32.798"
       cx="22.292"
       gradientTransform="matrix(-0.84302,0,0,1.0202,43.576,1.2052)"
       r="16.955999">
      <stop
         stop-color="#73d216"
         offset="0"
         id="stop12" />
      <stop
         stop-color="#4e9a06"
         offset="1"
         id="stop14" />
    </radialGradient>
  </defs>
  <g
     id="g36"
     transform="matrix(0.74232078,0,0,0.69706477,-3.8829861,-3.5611827)">
    <path
       id="path21"
       stroke-miterlimit="10"
       d="M 39.49,15.497 V 32.491 H 26.537 v 8.4825 l -19.959,-17 19.954,-17.244 v 8.7725 l 12.959,-0.0053 z"
       style="color:#000000;fill:url(#d);fill-rule:evenodd;stroke:#3a7304;stroke-linecap:round;stroke-linejoin:round;stroke-miterlimit:10"
       inkscape:connector-curvature="0" />
    <path
       id="path23"
       d="m 25.988,7.978 v 8.0565 H 38.93 v 8.885 c -16.75,-6.25 -16.134,5.295 -31.384,-0.955 L 25.988,7.9805 Z"
       style="color:#000000;opacity:0.50801996;fill:url(#e);fill-rule:evenodd"
       inkscape:connector-curvature="0" />
    <path
       id="path25"
       stroke-miterlimit="10"
       d="M 38.476,16.541 V 31.463 H 25.491 v 7.3014 L 8.168,23.9694 25.506,9.0644 v 7.4826 l 12.969,-0.0049 z"
       style="color:#000000;opacity:0.48127998;fill:none;stroke:#ffffff;stroke-miterlimit:10"
       inkscape:connector-curvature="0" />
  </g>
</svg>
